X: 28553
T: Murdo Of The Moon
R: waltz
M: 3/4
K: Gmajor
GA|:Bd cB AG|AG A2 BA|GE A2 GA|Bd A4|
GA Bd cB|AG AG A2|BA GE A2|GA Bd A2-|
A2 GF ED|G2 Gc BA|B2 GF ED|G2 Gc BA|
A2 GF ED|G2 Gc BA|B2 GF ED|G2 Gc BA|
A4 Bc|d2 G2 cB|A4 fg|a2 d2 fg|
g4 gf|ec d2 GA|Bd cB AG|A4 Bc|
d2 G2 cB|A4 fg|a2 d2 fg|g4 gf|
ec d2 GA|Bd cB AG|1 A4 GA:|2 A6||

